StripePaymentSheet/StripePaymentSheet/Resources/StripePaymentSheet.xcassets/PaymentMethods/icon-pm-giropay.imageset/icon-pm-giropay-mod.svg

<svg fill="none" height="16" viewBox="0 0 24 16" width="24" xmlns="http://www.w3.org/2000/svg" xmlns:xlink="http://www.w3.org/1999/xlink"><clipPath id="a"><path d="m0 0h24v16h-24z"/></clipPath><g clip-path="url(#a)"><path clip-rule="evenodd" d="m0 3.5116c0-1.94793 1.59245-3.5116 3.5355-3.5116h16.929c1.9448 0 3.5355 1.56402 3.5355 3.5116v8.9768c0 1.9476-1.5907 3.5116-3.5355 3.5116h-16.929c-1.94305 0-3.5355-1.5637-3.5355-3.5116zm3.5355-2.5116c-1.39975 0-2.5355 1.1249-2.5355 2.5116v8.9768c0 1.3867 1.13575 2.5116 2.5355 2.5116h16.929c1.4011 0 2.5355-1.1249 2.5355-2.5116v-8.9768c0-1.3867-1.1344-2.5116-2.5355-2.5116z" fill="#fff" fill-rule="evenodd"/><path d="m1 3.5116c0-1.3867 1.13575-2.5116 2.5355-2.5116h16.929c1.4011 0 2.5355 1.1249 2.5355 2.5116v8.9768c0 1.3867-1.1344 2.5116-2.5355 2.5116h-16.929c-1.39975 0-2.5355-1.1249-2.5355-2.5116z" fill="#04337b"/><path d="m2 12.4716c0 .8813.65275 1.5284 1.53894 1.5284h8.44596v-12h-8.44596c-.88619 0-1.53894.6471-1.53894 1.5277z" fill="#fff"/><path d="m10.3072 3.76502v5.32979c0 2.48009-1.21893 3.28029-3.68293 3.28029-.79352.0024-1.58213-.1269-2.33475-.383l.10588-1.6457c.64419.3129 1.18456.4977 2.06525.4977 1.21894 0 1.87619-.567 1.87619-1.74929v-.32479h-.02407c-.50393.707-1.20793 1.0318-2.05356 1.0318-1.67681 0-2.72112-1.2509-2.72112-3.0359 0-1.7955.85731-3.1409 2.75687-3.1409.90269 0 1.63075.4872 2.07763 1.2292h.02268v-1.0892zm-4.58699 2.96659c0 .938.56375 1.4707 1.19694 1.4707.75006 0 1.34887-.6251 1.34887-1.55259 0-.672-.39875-1.4252-1.34887-1.4252-.78581 0-1.19694.68459-1.19694 1.50709z" fill="#ee3525"/><path clip-rule="evenodd" d="m14.5383 12.375h2.0825v-3.3327h.0233c.394.7301 1.1819 1.001 1.9099 1.001 1.7937 0 2.7535-1.5071 2.7535-3.3208 0-1.4833-.9137-3.0975-2.5802-3.0975-.9488 0-1.8274.3892-2.2454 1.2488h-.0234v-1.106h-1.9202zm4.6166-5.6053c0 .9772-.4744 1.6485-1.2616 1.6485-.6944 0-1.2732-.672-1.2732-1.5666 0-.9184.5087-1.6016 1.2732-1.6016.8113 0 1.2616.7077 1.2616 1.5197z" fill="#fff" fill-rule="evenodd"/></g></svg>

<svg width="24" height="16" viewBox="0 0 24 16" fill="none" xmlns="http://www.w3.org/2000/svg">
<g clip-path="url(#clip0_788_23084)">
<path fill-rule="evenodd" clip-rule="evenodd" d="M0 3.5116C0 1.56367 1.59245 0 3.5355 0H20.4645C22.4093 0 24 1.56402 24 3.5116V12.4884C24 14.436 22.4093 16 20.4645 16H3.5355C1.59245 16 0 14.4363 0 12.4884V3.5116ZM3.5355 1C2.13575 1 1 2.1249 1 3.5116V12.4884C1 13.8751 2.13575 15 3.5355 15H20.4645C21.8656 15 23 13.8751 23 12.4884V3.5116C23 2.1249 21.8656 1 20.4645 1H3.5355Z" fill="white"/>
<path d="M1 3.5116C1 2.1249 2.13575 1 3.5355 1H20.4645C21.8656 1 23 2.1249 23 3.5116V12.4884C23 13.8751 21.8656 15 20.4645 15H3.5355C2.13575 15 1 13.8751 1 12.4884V3.5116Z" fill="#04337B"/>
<path d="M2 12.4716C2 13.3529 2.65275 14 3.53894 14H11.9849V2H3.53894C2.65275 2 2 2.6471 2 3.5277V12.4716Z" fill="white"/>
<path d="M10.3072 3.76502V9.09481C10.3072 11.5749 9.08827 12.3751 6.62427 12.3751C5.83075 12.3775 5.04214 12.2482 4.28952 11.9921L4.3954 10.3464C5.03959 10.6593 5.57996 10.8441 6.46065 10.8441C7.67959 10.8441 8.33684 10.2771 8.33684 9.09481V8.77002H8.31277C7.80884 9.47702 7.10484 9.80182 6.25921 9.80182C4.5824 9.80182 3.53809 8.55092 3.53809 6.76592C3.53809 4.97042 4.3954 3.62502 6.29496 3.62502C7.19765 3.62502 7.92571 4.11222 8.37259 4.85422H8.39527V3.76502H10.3072ZM5.72021 6.73161C5.72021 7.66961 6.28396 8.20231 6.91715 8.20231C7.66721 8.20231 8.26602 7.57721 8.26602 6.64972C8.26602 5.97772 7.86727 5.22452 6.91715 5.22452C6.13134 5.22452 5.72021 5.90911 5.72021 6.73161Z" fill="#EE3525"/>
<path fill-rule="evenodd" clip-rule="evenodd" d="M14.5383 12.375H16.6208V9.0423H16.6441C17.0381 9.7724 17.826 10.0433 18.554 10.0433C20.3477 10.0433 21.3075 8.5362 21.3075 6.7225C21.3075 5.2392 20.3938 3.625 18.7273 3.625C17.7785 3.625 16.8999 4.0142 16.4819 4.8738H16.4585V3.7678H14.5383V12.375ZM19.1549 6.7697C19.1549 7.7469 18.6805 8.4182 17.8933 8.4182C17.1989 8.4182 16.6201 7.7462 16.6201 6.8516C16.6201 5.9332 17.1288 5.25 17.8933 5.25C18.7046 5.25 19.1549 5.9577 19.1549 6.7697Z" fill="white"/>
</g>
<defs>
<clipPath id="clip0_788_23084">
<rect width="24" height="16" fill="white"/>
</clipPath>
</defs>
</svg>
